src/assets/fleet-icons/explorer.svg

<svg width="20" height="20" viewBox="0 0 20 20" fill="none" xmlns="http://www.w3.org/2000/svg">
<path d="M7.75 4L4 5.66667V16.0833L7.75 14.4167M7.75 4V14.4167M7.75 4L12.3333 5.66667M7.75 14.4167L12.3333 16.0833M12.3333 5.66667L16.0833 4V14.4167L12.3333 16.0833M12.3333 5.66667V16.0833" stroke="#656565" stroke-width="1.25" stroke-linecap="round" stroke-linejoin="round"/>
</svg>

<svg width="20" height="20" fill="none" xmlns="http://www.w3.org/2000/svg">
    <path
        d="M7.75 4 4 5.667v10.416l3.75-1.666M7.75 4v10.417M7.75 4l4.583 1.667m-4.583 8.75 4.583 1.666m0-10.416L16.083 4v10.417l-3.75 1.666m0-10.416v10.416"
        stroke="#656565" stroke-width="1.25" stroke-linecap="round" stroke-linejoin="round" />
</svg>
